assets/svg/icon_profile_notification_mute.svg

<svg width="24" height="24" viewBox="0 0 24 24" fill="none" xmlns="http://www.w3.org/2000/svg">
<g id="icon/profile/notification_mute">
<path id="Vector" d="M7.86102 18.8615C8.46539 20.4923 10.0961 21.6606 12.013 21.6606C13.9299 21.6606 15.5606 20.4923 16.165 18.8615M15.5 4.03275C14.4942 3.37913 13.2974 3 12.013 3C8.446 3 5.55437 5.92413 5.55437 9.53123V10.1882C5.55437 10.9766 5.3236 11.7473 4.89113 12.4033L3.83136 14.0109C3.52464 14.4761 3.38931 14.9943 3.4011 15.5M18.0635 7.24131C18.3273 7.95389 18.4716 8.72552 18.4716 9.53123V10.1882C18.4716 10.9766 18.7024 11.7473 19.1349 12.4033L20.1946 14.0109C21.1626 15.4792 20.4236 17.475 18.7401 17.9393C14.8154 19.0217 10.6991 19.1396 6.73273 18.2929" stroke="#0E0E0E" stroke-linecap="round"/>
<path id="Vector 429" d="M19 3.5L3 19" stroke="#0E0E0E" stroke-linecap="round"/>
</g>
</svg>

<svg xmlns="http://www.w3.org/2000/svg" width="24" height="24" fill="none"><g stroke="#0E0E0E" stroke-linecap="round"><path d="M7.861 18.862c.604 1.63 2.235 2.799 4.152 2.799s3.548-1.169 4.152-2.8M15.5 4.034A6.4 6.4 0 0 0 12.013 3C8.446 3 5.554 5.924 5.554 9.531v.657c0 .789-.23 1.56-.663 2.215l-1.06 1.608a2.6 2.6 0 0 0-.43 1.489m14.663-8.259c.263.713.408 1.485.408 2.29v.657c0 .789.23 1.56.663 2.215l1.06 1.608c.968 1.468.229 3.464-1.455 3.928a25.3 25.3 0 0 1-12.007.354M19 3.5 3 19"/></g></svg>
